X: 10060
T: Dick The Welshman
R: polka
M: 2/4
K: Amajor
cB Ac|df ec|fa ec|dB Be|
cB Ac|df ec|fa ed|cA A:|
fa ga|ea ga|(3def ec|dB Be|
fa ga|ea ga|(3def ed|cA A:|

